icons/Snowflake_filled.svg

<svg width="24" height="24" viewBox="0 0 24 24" fill="none" xmlns="http://www.w3.org/2000/svg">
<path fill-rule="evenodd" clip-rule="evenodd" d="M12.0004,1.74817c0.6904,0 1.25,0.55964 1.25,1.25v1.00157c0.5523,-0.41391 1.3355,-0.30191 1.7497,0.25026c0.4142,0.55228 0.3022,1.33579 -0.25,1.75l-1.4997,1.12474v2.70561l2.3471,-1.3551l0.2237,-1.85682c0.0826,-0.6854 0.7052,-1.17408 1.3906,-1.09151c0.6838,0.08239 1.1718,0.7023 1.092,1.38584l0.8681,-0.5012c0.5979,-0.34518 1.3624,-0.14033 1.7075,0.45753c0.3452,0.59787 0.1404,1.36236 -0.4575,1.70753l-0.873,0.50405l0.0044,0.00186c0.6348,0.27119 0.9296,1.00567 0.6585,1.64057c-0.2712,0.6348 -1.0057,0.9297 -1.6406,0.6585l-1.7286,-0.7384l-2.3364,1.3489l2.3522,1.358l1.7128,-0.7317c0.6349,-0.2712 1.3694,0.0237 1.6406,0.6585c0.2695,0.6311 -0.0202,1.3606 -0.6472,1.6356l0.8619,0.4977c0.5979,0.3451 0.8027,1.1096 0.4576,1.7075c-0.3452,0.5979 -1.1097,0.8027 -1.7076,0.4575l-0.8747,-0.505l0.0015,0.0123c0.0825,0.6854 -0.4061,1.308 -1.0915,1.3906c-0.6854,0.0825 -1.308,-0.4061 -1.3906,-1.0915l-0.2258,-1.8739l-2.345,-1.3539v2.7215l1.4997,1.1247c0.5522,0.4142 0.6642,1.1977 0.25,1.75c-0.4142,0.5522 -1.1974,0.6642 -1.7497,0.2503v0.9979c0,0.6903 -0.5596,1.25 -1.25,1.25c-0.6904,0 -1.25,-0.5597 -1.25,-1.25v-0.9985l-0.0003,0.0003c-0.5523,0.4142 -1.33583,0.3023 -1.75005,-0.25c-0.41421,-0.5523 -0.30228,-1.3358 0.25,-1.75l1.50035,-1.1253v-2.7142l-2.34665,1.3548l-0.22485,1.8663c-0.08258,0.6854 -0.70514,1.1741 -1.39054,1.0915c-0.6854,-0.0826 -1.17409,-0.7052 -1.09151,-1.3906l0.00057,-0.0047l-0.86396,0.4988c-0.59786,0.3452 -1.36235,0.1404 -1.70753,-0.4575c-0.34518,-0.5979 -0.14033,-1.3624 0.45753,-1.7075l0.85903,-0.496c-0.63185,-0.2727 -0.9247,-1.0053 -0.65413,-1.6387c0.27118,-0.6348 1.00568,-0.9297 1.64054,-0.6585l1.71991,0.7347l2.35741,-1.361l-2.34159,-1.352l-1.73573,0.7415c-0.63486,0.2711 -1.36935,-0.0237 -1.64054,-0.6585c-0.27119,-0.6349 0.02363,-1.36939 0.65849,-1.64058l0.01145,-0.00489l-0.87022,-0.50241c-0.59786,-0.34518 -0.80271,-1.10967 -0.45753,-1.70754c0.34518,-0.59786 1.10967,-0.80271 1.70753,-0.45753l0.85735,0.49499c-0.07529,-0.68052 0.41164,-1.29614 1.09293,-1.37823c0.6854,-0.08257 1.30797,0.40611 1.39055,1.09151l0.22279,1.84919l2.3487,1.35602v-2.69837l-1.50035,-1.12526c-0.55228,-0.41421 -0.66421,-1.19772 -0.25,-1.75c0.41422,-0.55228 1.19775,-0.66421 1.75005,-0.25l0.0003,0.00026v-1.00209c0,-0.69036 0.5596,-1.25 1.25,-1.25z" fill="#002B51"/>
</svg>

<svg width="24" height="24" viewBox="0 0 24 24" fill="none" xmlns="http://www.w3.org/2000/svg">
<path fill-rule="evenodd" clip-rule="evenodd" d="M12.0004 1.74817C12.6908 1.74817 13.2504 2.30781 13.2504 2.99817V3.99974C13.8027 3.58583 14.5859 3.69783 15.0001 4.25C15.4143 4.80228 15.3023 5.58579 14.7501 6L13.2504 7.12474V9.83035L15.5975 8.47525L15.8212 6.61843C15.9038 5.93303 16.5264 5.44435 17.2118 5.52692C17.8956 5.60931 18.3836 6.22922 18.3038 6.91276L19.1719 6.41156C19.7698 6.06638 20.5343 6.27123 20.8794 6.86909C21.2246 7.46696 21.0198 8.23145 20.4219 8.57662L19.5489 9.08067L19.5533 9.08253C20.1881 9.35372 20.4829 10.0882 20.2118 10.7231C19.9406 11.3579 19.2061 11.6528 18.5712 11.3816L16.8426 10.6432L14.5062 11.9921L16.8584 13.3501L18.5712 12.6184C19.2061 12.3472 19.9406 12.6421 20.2118 13.2769C20.4813 13.908 20.1916 14.6375 19.5646 14.9125L20.4265 15.4102C21.0244 15.7553 21.2292 16.5198 20.8841 17.1177C20.5389 17.7156 19.7744 17.9204 19.1765 17.5752L18.3018 17.0702L18.3033 17.0825C18.3858 17.7679 17.8972 18.3905 17.2118 18.4731C16.5264 18.5556 15.9038 18.067 15.8212 17.3816L15.5954 15.5077L13.2504 14.1538V16.8753L14.7501 18C15.3023 18.4142 15.4143 19.1977 15.0001 19.75C14.5859 20.3022 13.8027 20.4142 13.2504 20.0003V20.9982C13.2504 21.6885 12.6908 22.2482 12.0004 22.2482C11.31 22.2482 10.7504 21.6885 10.7504 20.9982V19.9997L10.7501 20C10.1978 20.4142 9.41427 20.3023 9.00005 19.75C8.58584 19.1977 8.69777 18.4142 9.25005 18L10.7504 16.8747V14.1605L8.40375 15.5153L8.1789 17.3816C8.09632 18.067 7.47376 18.5557 6.78836 18.4731C6.10296 18.3905 5.61427 17.7679 5.69685 17.0825L5.69742 17.0778L4.83346 17.5766C4.2356 17.9218 3.47111 17.717 3.12593 17.1191C2.78075 16.5212 2.9856 15.7567 3.58346 15.4116L4.44249 14.9156C3.81064 14.6429 3.51779 13.9103 3.78836 13.2769C4.05954 12.6421 4.79404 12.3472 5.4289 12.6184L7.14881 13.3531L9.50622 11.9921L7.16463 10.6401L5.4289 11.3816C4.79404 11.6527 4.05955 11.3579 3.78836 10.7231C3.51717 10.0882 3.81199 9.35371 4.44685 9.08252L4.4583 9.07763L3.58808 8.57522C2.99022 8.23004 2.78537 7.46555 3.13055 6.86768C3.47573 6.26982 4.24022 6.06497 4.83808 6.41015L5.69543 6.90514C5.62014 6.22462 6.10707 5.609 6.78836 5.52691C7.47376 5.44434 8.09633 5.93302 8.17891 6.61842L8.4017 8.46761L10.7504 9.82363V7.12526L9.25005 6C8.69777 5.58579 8.58584 4.80228 9.00005 4.25C9.41427 3.69772 10.1978 3.58579 10.7501 4L10.7504 4.00026V2.99817C10.7504 2.30781 11.31 1.74817 12.0004 1.74817Z" fill="#002B51"/>
</svg>
